X:1
T:Under the Blood (Hewitt)
T:Under the Blood (Hewitt)
T:William James Kirkpatrick
T:Eliza Edmunds Hewitt, 1899
T:Public Domain Courtesy of the Cyber Hymnal™
T:Public Domain Courtesy of the Cyber Hymnal™
C:William James Kirkpatrick
Z:Public Domain
Z:Courtesy of the Cyber Hymnal™
%%score ( 1 2 ) ( 3 4 )
L:1/8
Q:1/4=103
M:6/8
K:F
V:1 treble 
V:2 treble 
V:3 bass 
V:4 bass 
V:1
 (F/G/) | [FA]2 [FA] (AG)F | [FA]2 [Fc] [Cc]3 | [DF]>[DE][DF] [EG]3 | %4
w: 1.~Lord, *|keep my soul * from|day to day,|Un- der the blood,|
w: 2.~The *|sin- ner’s ref- * uge|here a- lone,|Un- der the blood,|
w: 3.~Lord, *|with Thy- self * my|spir- it fill,|Un- der the blood,|
w: 4.~Sweet *|peace a- bides * with-|in the heart,|Un- der the blood,|
w: 5.~The *|Ho- ly Spir- * it,|hour by hour,|Un- der the blood,|
 [EG]>[DF][EG] !fermata![FA]2 (F/G/) | [FA]2 [FA] (AG)F | [FA]2 [Fc] [Cc]3 | %7
w: un- der the blood; Take *|doubt and fear * and|sin a- way,|
w: un- der the blood; Here *|Je- sus makes * sal-|va- tion known,|
w: un- der the blood; And *|work in me * to|do Thy will,|
w: un- der the blood; And *|gifts di- vine * their|joy im- part,|
w: un- der the blood, Ex- *|erts His sanc- * ti-|fy- ing power,|
 [DF]>[DE][DF] [FA]2 [EG] | F3- F2 z ||"^Refrain" [Ac]>[GB][FA] [FA]2 [Ac] | [Ac]2 [GB] [GB]3 | %11
w: Un- der the pre- cious|blood. *|||
w: Un- der the pre- cious|blood. *|||
w: Un- der the pre- cious|blood. *|Un- der the blood, the|pre- cious blood,|
w: Un- der the pre- cious|blood. *|||
w: Un- der the pre- cious|blood. *|||
 [GB]>[FA][EG] [EG]2 [GB] | [GB]2 [FA] [FA]3 | [FA]2 [FA] [FA]>[CG][CF] | [DG]2 [B,D] [B,D]3 | %15
w: ||||
w: ||||
w: Un- der the cleans- ing,|heal- ing flood;|Keep me, Sav- ior, from|day to day;|
w: ||||
w: ||||
 [A,C]>[CA][FA] [EA]2 [EG] | [CF]3- [CF]2 |] %17
w: ||
w: ||
w: Un- der the pre- cious|blood. *|
w: ||
w: ||
V:2
 F | x3 F2 F | x6 | x6 | x5 F | x3 F2 F | x6 | x6 | F3- F2 x || x6 | x6 | x6 | x6 | x6 | x6 | x6 | %16
 x5 |] %17
V:3
 (A,/B,/) | [F,C]2 [F,C] (CB,)[F,A,] | [F,C]2 [F,A,] [F,A,]3 | [D,A,]>[D,G,][D,A,] [C,C]3 | %4
 [C,C]>[C,C][C,C] !fermata![F,C]2 (A,/B,/) | [F,C]2 [F,C] (CB,)[F,A,] | [F,C]2 [F,A,] [F,A,]3 | %7
 [D,=B,]>[D,B,][D,B,] [C,C]2 [C,_B,] | [F,A,]3- [F,A,]2 z || [F,C]>[F,C][F,C] [F,C]2 [F,C] | %10
 [C,C]2 [C,C] [C,C]3 | [C,C]>[C,C][C,C] [C,C]2 [C,C] | [F,C]2 [F,C] [F,C]3 | %13
 [F,C]2 [F,C] [F,C]>[F,B,][F,A,] | [B,,B,]2 [B,,F,] [B,,F,]3 | [C,F,]>[C,F,][C,A,] [C,C]2 [C,B,] | %16
 [F,A,]3- [F,A,]2 |] %17
V:4
 F, | x3 F,2 x | x6 | x6 | x5 F, | x3 F,2 x | x6 | x6 | x6 || x6 | x6 | x6 | x6 | x6 | x6 | x6 | %16
 x5 |] %17

